X:1
T:Glentromie
T:Glentromie
T:William Marshall
C:William Marshall
L:1/8
Q:1/8=128
M:4/4
K:C
V:1 treble 
V:1
|: e/f/ | g<c e>d c2 ce/f/ | g<c a>c B<d de/f/ | g<c e>d c2 c/B/A/G/ | %4
 A/B/c/A/ B/c/d/B/ G<c ce/f/ | g<c e>d c2 ce/f/ | g<c a>c B<d de/f/ | g<c e>d c2 c/B/A/G/ | %8
 A/B/c/A/ B/c/d/B/ G<c ce/f/ | E<c G<c E<c G<c | e>d c/d/e/c/ d<D DG/F/ | E<c G<c E<g e>c | %12
 A<f d>B e<c cG/F/ | E<c G<c E<c G<c | e>d c/d/e/c/ d<D DG/F/ | E>G c>E F>A d>f | %16
 e/f/g/a/ g/f/e/d/ e<c c :| %17

